packages/tokens/icons/productBadgingCircle/size24Px.svg

<svg viewBox="0 0 24 24" fill="none" xmlns="http://www.w3.org/2000/svg" width="1em" height="1em"><path d="M11.5 4.5L5.16667 4.5C4.24619 4.5 3.5 5.24619 3.5 6.16667L3.5 17.8333C3.5 18.7538 4.24619 19.5 5.16667 19.5H18.8333C19.7538 19.5 20.5 18.7538 20.5 17.8333L20.5 12.5" stroke="currentColor" stroke-linecap="round" stroke-linejoin="round"/><path d="M6.5 16.5H14.5M6.5 13.5L17.5 13.5" stroke="currentColor" stroke-linecap="round"/><circle cx="17" cy="7" r="3.5" stroke="currentColor" stroke-linecap="round"/></svg>

<svg xmlns="http://www.w3.org/2000/svg" fill="none" viewBox="0 0 24 24" width="1em" height="1em"><path stroke="currentColor" stroke-linecap="round" stroke-linejoin="round" d="M11.5 4.5H5.167c-.92 0-1.667.746-1.667 1.667v11.666c0 .92.746 1.667 1.667 1.667h13.666c.92 0 1.667-.746 1.667-1.667V12.5"/><path stroke="currentColor" stroke-linecap="round" d="M6.5 16.5h8m-8-3h11"/><circle cx="17" cy="7" r="3.5" stroke="currentColor" stroke-linecap="round"/></svg>
